X: 942
T: Sugar in the Gourd
B: jims roots
M:4/4
L:1/8
Q: 1/4=100
K:A
V:1 
"A"e3e efed | ce2fe2eg | "D"fefg afed | "A"ce2f e2eg |
agae fece | efec B2AB | cBAc "E"BAFE | [1 FA2B "A"A4 :|[2 FA2B "A"A2||
AB | "A"cBAF EDCE | ABcA "E"B2AB | "A"cBAF EDCE | "D"FA2B "A"A2AB |
        cBAF EDCE | ABcA "E"B2AB | "A"cBAc BAFE | "E"FA2B "A"A4 |]
% abcbook-tune_id 6298c297fbd83f46393ff580


% abcbook-boost 0
% abcbook-tablature 
% abcbook-transpose 
% abcbook-lastupdated 1654178455632
% abcbook-soundfonts 
% abcbook-repeats 1


